X: 791
T: Gel Ey Sâlik
C: Dede Efendi
O: Turkey
F: http://compmusic.upf.edu/node/140
N: dugah--ilahi--agircenber--gel_ey_salik--dede_efendi
N: makam= dugah
N: form= ilahi
N: usul= agircenber = 24/2
M: 24/2
L: 1/16
K: C _1/4B _7/8d  
Q: 1/4=32
%%MIDI tuningsystem comma53
A8 B2c2 B2c2 A6G2 _3/4d2c2 d2e2  | \
w:  Gel  ey  *  *  *  sâ  | 
_3/4d3c B2c2 B2c2 d2{e}dc c12 z4  | 
w:  lik   | 
_3/4d8 d2e2 d2c2 c2d2 c2B2 c3B A2_3/4B2  | \
w:  di yem  *  *  *  bir   | 
A2z2 _2/4B2c2 _1/4B2c2 B2A2 A3^G F2G2 A2G2 A2_3/4B2  | 
w:  *  söz   | 
A2z2 A2^c2 _3/4B2c2 _7/8B2A2 A3^G F4 {G}B2A2 _3/4B2c2  | \
w:  *  ki  *  *  *  *  *  *  *  *  *  hak  | 
_7/8B3A ^G2A2 G2A2 _3/4B3/2^c/_7/8BA A12 z4  | 
w:  tır    | 
A8 B2c2 B2c2 A6G2 _3/4d2c2 d2e2  | \
w:  Gel  ey  *  *  *  sâ  | 
_3/4d3c B2c2 B2c2 d2{e}dc c12 z4  | 
w:  lik   | 
_3/4d8 d2e2 d2c2 c2d2 c2B2 c3B A2_3/4B2  | \
w:  di yem  *  *  *  bir   | 
A2z2 _2/4B2c2 _1/4B2c2 B2A2 A3^G F2G2 A2G2 A2_3/4B2  | 
w:  *  söz   | 
A2z2 A2^c2 _3/4B2c2 _7/8B2A2 A3^G F4 {G}B2A2 _3/4B2c2  | \
w:  *  ki  *  *  *  *  *  *  *  *  *  hak  | 
_7/8B3A ^G2A2 G2A2 _3/4B3/2^c/_7/8BA A12 z4  | 
w:  tır    | 
=d8 d8 g12 g2^f2  | g2^f2 g2a2 g2a2 g2^9/8f2 e12 z4  | \
w:  Ha dîs_ i   |  Hak   | 
e8 _7/8e3=d c4 d8 {a}f2=e2 f2g2  | 
w:  dü rür  *  *  hak   | 
f2e4f2 e2=d4e2 {e}d2c4d2 c2B4c2  | \
w:  söz   | 
=d4 c2d2 c4 B2c2 A4 z4 {e}d2c2 =B2A2  | 
w:  *  ha *  *  *  *  *  *  kî  | 
=B3A ^G2A2 G2A2 B3/2c/BA A12 z4  | \
w:  kat    | 
A8 B2c2 B2c2 A6G2 _3/4d2c2 d2e2  | 
w:  E ğer  *  *  *  çi   | 
_3/4d3c B2c2 B2c2 d2{e}dc c12 z4  | \
w:  söy  | 
_3/4d8 d2e2 d2c2 c2d2 c2B2 c3B A2_3/4B2  | 
w:  le yen  *  *  *  dil  | 
A2z2 _2/4B2c2 _1/4B2c2 B2A2 A3^G F2G2 A2G2 A2_3/4B2  | \
w:  *  dir   | 
A2z2 A2^c2 _3/4B2c2 _7/8B2A2 A3^G F4 {G}B2A2 _3/4B2c2  | 
w:  *  du *  *  *  *  *  *  *  *  *  dak  | 
_7/8B3A ^G2A2 G2A2 _3/4B3/2^c/_7/8BA A12 z4  | |


